public/payments/common/jeton.svg

<svg width="95" height="36" viewBox="0 0 95 36" fill="none" xmlns="http://www.w3.org/2000/svg">
<g clip-path="url(#clip0_197_329)">
<path d="M33.948 23.3413C32.1204 23.3411 30.2928 23.3407 28.4652 23.3413C27.9699 23.3415 27.8831 23.4421 28.0759 23.8796C28.59 25.0459 29.4444 25.8107 30.6975 26.1096C31.9233 26.4021 33.0571 26.2469 34.0851 25.4828C34.2378 25.3694 34.3999 25.341 34.5834 25.393C35.818 25.7418 37.0535 26.0866 38.2881 26.4355C38.5873 26.52 38.8839 26.6137 39.1812 26.7049C39.4231 26.7793 39.4732 26.92 39.331 27.1355C38.7365 28.036 38.0928 28.893 37.2207 29.5449C34.9727 31.2251 32.4736 31.7473 29.7369 31.2076C26.7863 30.6257 24.66 28.9384 23.2755 26.2858C22.784 25.3443 22.5397 24.3152 22.3198 23.2644C21.9699 21.5923 22.1397 19.9771 22.5516 18.3703C22.9221 16.9253 23.6181 15.6368 24.611 14.5167C25.7555 13.2257 27.1303 12.2974 28.777 11.7944C30.2312 11.3502 31.7085 11.3759 33.1918 11.6078C34.3169 11.7838 35.3568 12.1974 36.3183 12.8039C37.8406 13.7637 38.8771 15.1264 39.5325 16.8001C40.1326 18.3328 40.3479 19.9295 40.3331 21.5673C40.3295 21.9673 40.2667 22.3564 40.1633 22.7393C40.0379 23.2031 39.8287 23.3442 39.3496 23.3432C37.5491 23.3393 35.7485 23.3415 33.948 23.3413ZM31.2406 18.7159C32.1885 18.7159 33.1361 18.7179 34.0839 18.7142C34.2907 18.7134 34.5471 18.7204 34.4177 18.3888C34.2481 17.9548 34.0171 17.5597 33.6441 17.2569C32.896 16.6496 32.0392 16.4669 31.0993 16.4987C29.7808 16.5433 28.8572 17.1805 28.2328 18.3212C28.0691 18.6204 28.1351 18.7263 28.479 18.7212C29.3991 18.7077 30.3201 18.7167 31.2406 18.7159Z" fill="#FF6400"/>
<path d="M19.6952 14.2054C19.6952 16.9774 19.693 19.7494 19.696 22.5214C19.6983 24.5335 19.0563 26.3245 17.847 27.9063C16.6371 29.4891 15.0704 30.5754 13.1568 31.1013C11.8518 31.4599 10.5298 31.5047 9.18525 31.2214C7.49194 30.8646 6.03508 30.0899 4.8066 28.8847C3.5145 27.6169 2.67371 26.0876 2.28359 24.3018C2.17153 23.7885 2.13114 23.281 2.12711 22.7617C2.12468 22.4475 2.2634 22.3167 2.5681 22.3171C4.62588 22.3204 6.68385 22.3202 8.74163 22.3177C9.06208 22.3173 9.22947 22.4544 9.29529 22.7837C9.48651 23.7425 10.3289 24.1932 11.0781 24.1054C11.89 24.0105 12.549 23.314 12.5472 22.3864C12.5363 16.6927 12.543 10.9991 12.5438 5.30563C12.5438 4.58957 12.5557 4.57736 13.2717 4.57715C15.2207 4.57695 17.1696 4.57634 19.1185 4.57735C19.6712 4.57756 19.6944 4.59996 19.6946 5.15187C19.6956 8.16987 19.6952 11.1877 19.6952 14.2054Z" fill="#FF6400"/>
<path d="M54.7804 21.5522C54.826 19.1014 55.4195 16.963 56.8321 15.1119C58.2474 13.2574 60.096 12.0811 62.3938 11.6428C64.3117 11.2771 66.1962 11.3805 68.0149 12.0994C69.3801 12.6389 70.5474 13.4886 71.5322 14.6006C72.65 15.8626 73.3854 17.3188 73.7454 18.9574C74.0394 20.2954 74.1054 21.6505 73.8898 23.0185C73.3973 26.1453 71.8754 28.5881 69.1376 30.1653C67.0953 31.3418 64.8857 31.6837 62.5552 31.2294C61.1207 30.9497 59.805 30.416 58.6472 29.5252C57.0433 28.291 55.9386 26.6992 55.3207 24.7498C54.975 23.6588 54.8349 22.5481 54.7804 21.5522ZM64.8348 26.0866C65.9222 26.0363 67.1347 25.3801 67.8166 23.9044C68.5405 22.3381 68.5314 20.7323 67.9317 19.1329C67.6369 18.3468 67.1133 17.701 66.3888 17.2903C64.4171 16.172 61.757 16.7616 60.8154 19.2403C60.2652 20.6889 60.2938 22.1564 60.8303 23.5998C61.4058 25.1484 62.7617 26.0854 64.8348 26.0866Z" fill="#FF6400"/>
<path d="M76.3259 21.397C76.3259 18.4877 76.3255 15.5785 76.3261 12.6692C76.3263 11.9609 76.3693 11.9171 77.0524 11.9171C78.4338 11.9167 79.8149 11.9165 81.1963 11.9169C81.7822 11.9169 81.8341 11.9601 81.8773 12.555C81.8939 12.7837 81.9813 12.8275 82.1554 12.6984C82.9574 12.1043 83.8673 11.7593 84.8351 11.5962C87.5043 11.1461 90.2009 11.9029 91.7594 14.4158C92.588 15.7518 92.9911 17.1896 92.9911 18.7545C92.9911 22.6063 92.9919 26.4578 92.9917 30.3096C92.9917 30.8538 92.9337 30.9153 92.3805 30.9163C90.9315 30.9194 89.4825 30.9202 88.0335 30.9157C87.4655 30.9141 87.3795 30.8212 87.3791 30.2426C87.3777 26.6778 87.3744 23.113 87.3807 19.5482C87.3819 18.8545 87.202 18.2126 86.8185 17.6554C86.2346 16.8069 85.3134 16.6929 84.4161 16.7994C83.0354 16.9633 82.3408 17.7381 82.0833 19.1288C81.9781 19.6964 81.9351 20.2622 81.9361 20.8377C81.9412 23.9655 81.9389 27.0933 81.9381 30.221C81.9379 30.8823 81.9022 30.9171 81.251 30.9175C79.8291 30.9181 78.4071 30.9204 76.9852 30.9161C76.4132 30.9143 76.3271 30.8234 76.3269 30.2481C76.3253 27.2975 76.3259 24.3473 76.3259 21.397Z" fill="#FF6400"/>
<path d="M43.8215 21.5003C43.8215 20.2851 43.8222 19.0698 43.8213 17.8548C43.8209 17.2326 43.8199 17.2324 43.2214 17.2304C42.883 17.2294 42.5446 17.2251 42.2062 17.23C41.8736 17.2347 41.7082 17.0931 41.7099 16.7406C41.7165 15.3071 41.7177 13.8735 41.7099 12.44C41.7076 12.0504 41.8813 11.8995 42.2554 11.9143C42.6203 11.9288 42.9872 11.9017 43.3517 11.9213C43.7012 11.9398 43.8306 11.8058 43.827 11.4476C43.8131 10.0686 43.8207 8.68963 43.8219 7.31066C43.8226 6.68829 43.8476 6.66283 44.461 6.66242C45.8959 6.6612 47.3309 6.66079 48.7658 6.66262C49.3172 6.66324 49.422 6.75529 49.4212 7.29315C49.4194 8.71264 49.4162 10.1323 49.3901 11.5516C49.3841 11.8769 49.545 11.916 49.7869 11.9162C50.6263 11.9162 51.4655 11.9156 52.3048 11.9172C52.8403 11.9184 52.9253 11.998 52.9266 12.5273C52.9298 13.8927 52.9296 15.258 52.9268 16.6235C52.9255 17.1536 52.8488 17.2269 52.303 17.2292C51.4501 17.2328 50.5974 17.2347 49.7445 17.2292C49.4679 17.2273 49.3883 17.3231 49.3911 17.6208C49.4119 19.7773 49.4069 21.9343 49.4107 24.091C49.4111 24.2678 49.4085 24.4452 49.4228 24.6211C49.4992 25.5522 49.6035 25.7135 50.6976 25.8243C51.2746 25.8828 51.8507 25.7054 52.4191 25.5875C52.8304 25.5021 52.9336 25.5437 52.9365 25.9473C52.9455 27.3263 52.9391 28.7053 52.9407 30.0842C52.9409 30.3146 52.85 30.4606 52.6293 30.5538C51.5464 31.0115 50.4159 31.1738 49.256 31.0705C48.2995 30.9852 47.3574 30.8139 46.5081 30.3062C45.236 29.5455 44.4 28.4678 44.0544 27.0037C43.6758 25.4003 43.8767 23.7727 43.8222 22.1558C43.8151 21.9373 43.8215 21.7188 43.8215 21.5003Z" fill="#FF6400"/>
</g>
<defs>
<clipPath>
<rect width="95" height="36" fill="white"/>
</clipPath>
</defs>
</svg>

<svg xmlns="http://www.w3.org/2000/svg" width="95" height="36" fill="none"><g fill="#FF6400" clip-path="url(#clip0_197_329)"><path d="M33.95 23.34h-5.48c-.5 0-.59.1-.4.54a3.68 3.68 0 0 0 2.63 2.23c1.22.3 2.36.14 3.39-.63a.54.54 0 0 1 .5-.09l3.7 1.05.9.26c.23.08.28.22.14.44-.6.9-1.24 1.75-2.1 2.4a9.04 9.04 0 0 1-7.5 1.67 8.96 8.96 0 0 1-6.45-4.92c-.5-.95-.74-1.97-.96-3.03-.35-1.67-.18-3.28.23-4.89a9.2 9.2 0 0 1 2.06-3.85 9.01 9.01 0 0 1 4.17-2.73 9.74 9.74 0 0 1 7.54 1.01 8.02 8.02 0 0 1 3.21 4c.6 1.53.82 3.13.8 4.77 0 .4-.06.79-.17 1.17-.12.46-.33.6-.81.6h-5.4Zm-2.7-4.62h2.83c.21 0 .47 0 .34-.33-.17-.44-.4-.83-.78-1.13-.74-.61-1.6-.8-2.54-.76a3.2 3.2 0 0 0-2.87 1.82c-.16.3-.1.4.25.4h2.76ZM19.7 14.2v8.32c0 2.01-.64 3.8-1.85 5.39a8.7 8.7 0 0 1-8.66 3.31 8.97 8.97 0 0 1-6.9-6.92 7.41 7.41 0 0 1-.16-1.54c0-.31.13-.44.44-.44h6.17c.32 0 .49.13.56.46.19.96 1.03 1.41 1.78 1.33.81-.1 1.47-.8 1.47-1.72V5.3c0-.72 0-.73.72-.73h5.85c.55 0 .57.02.57.57v9.06ZM54.78 21.55c.05-2.45.64-4.59 2.05-6.44a8.9 8.9 0 0 1 5.56-3.47 9.94 9.94 0 0 1 5.62.46 9.57 9.57 0 0 1 5.73 6.86c.3 1.34.37 2.69.15 4.06a9.51 9.51 0 0 1-4.75 7.15 9.26 9.26 0 0 1-6.58 1.06 9.16 9.16 0 0 1-3.91-1.7 9.5 9.5 0 0 1-3.33-4.78c-.34-1.1-.49-2.2-.54-3.2Zm10.05 4.54a3.5 3.5 0 0 0 2.99-2.19c.72-1.56.71-3.17.11-4.77a3.48 3.48 0 0 0-1.54-1.84c-1.97-1.12-4.63-.53-5.57 1.95a6.03 6.03 0 0 0 .01 4.36c.58 1.55 1.93 2.49 4 2.49ZM76.33 21.4v-8.73c0-.7.04-.75.72-.75h4.15c.58 0 .63.04.68.63.01.23.1.28.28.15.8-.6 1.7-.94 2.68-1.1 2.66-.45 5.36.3 6.92 2.82a8.05 8.05 0 0 1 1.23 4.33v11.56c0 .54-.06.6-.6.6h-4.36c-.56 0-.65-.09-.65-.67v-10.7c0-.69-.18-1.33-.56-1.88-.59-.85-1.5-.97-2.4-.86-1.38.16-2.08.94-2.34 2.33-.1.57-.14 1.13-.14 1.7v9.4c0 .65-.04.69-.69.69H77c-.58 0-.66-.1-.66-.67V21.4ZM43.82 21.5v-3.65c0-.62 0-.62-.6-.62h-1.01c-.34 0-.5-.14-.5-.49v-4.3c0-.39.17-.54.55-.53.36.02.73 0 1.1.01.34.02.47-.11.47-.47-.02-1.38 0-2.76 0-4.14 0-.62.02-.65.63-.65h4.3c.56 0 .66.1.66.63 0 1.42 0 2.84-.03 4.26 0 .33.16.37.4.37h2.51c.54 0 .63.08.63.6v4.1c0 .53-.08.6-.63.6h-2.56c-.27 0-.35.1-.35.4.02 2.16.02 4.31.02 6.47l.01.53c.08.93.18 1.1 1.28 1.2.57.06 1.15-.11 1.72-.23.41-.09.51-.05.52.36v4.13c0 .23-.09.38-.31.47a6.96 6.96 0 0 1-3.37.52 6.3 6.3 0 0 1-2.75-.76 5.07 5.07 0 0 1-2.46-3.3c-.37-1.61-.17-3.24-.23-4.85v-.66Z"/></g></svg>
